dist/assets/icons/logo-header.svg

<svg width="20" height="20" viewBox="0 0 20 20" fill="none" xmlns="http://www.w3.org/2000/svg">
<path d="M18.6818 12.5344C18.1028 14.3757 16.8142 16.6577 14.2917 18.0103C12.7282 18.8487 11.0306 19.1833 9.38314 19.071L9.42568 0.942909C9.47777 0.938618 9.53005 0.93472 9.58253 0.931229C10.0681 0.927688 10.6665 0.949319 11.28 1.01902C11.5536 1.05012 11.8247 1.0902 12.0863 1.1403C12.6587 1.27589 13.2174 1.46652 13.754 1.70967C15.5103 2.50552 17.0281 3.86323 18.0099 5.69434C18.8203 7.2056 19.1598 8.84194 19.0803 10.437C19.0472 10.9746 18.9268 11.7156 18.6818 12.5344ZM8.42537 1.07488L8.38343 18.947C5.74393 18.4708 3.34092 16.838 1.97576 14.292C-0.398422 9.86431 1.2663 4.35026 5.694 1.97607C6.26708 1.66878 7.24635 1.28822 8.42537 1.07488Z" stroke="url(#paint0_linear_0_497)"/>
<defs>
<linearGradient id="paint0_linear_0_497" x1="0.755987" y1="8.7235" x2="20.9646" y2="9.99221" gradientUnits="userSpaceOnUse">
<stop offset="0.288448" stop-color="#555248"/>
<stop offset="0.780176" stop-color="#1B1A17" stop-opacity="0"/>
</linearGradient>
</defs>
</svg>

<svg width="20" height="20" fill="none" xmlns="http://www.w3.org/2000/svg"><path d="M18.682 12.534c-.58 1.842-1.868 4.124-4.39 5.476a9.052 9.052 0 0 1-4.909 1.061L9.426.943 9.583.93c.485-.003 1.083.018 1.697.088.274.031.545.071.806.121a9.153 9.153 0 0 1 1.668.57 9.055 9.055 0 0 1 4.256 3.984 9.052 9.052 0 0 1 1.07 4.743 9.668 9.668 0 0 1-.398 2.097ZM8.425 1.074l-.042 17.873a9.097 9.097 0 0 1-2.69-16.97c.574-.308 1.553-.689 2.732-.902Z" stroke="url(#a)"/><defs><linearGradient id="a" x1=".756" y1="8.723" x2="20.965" y2="9.992" gradientUnits="userSpaceOnUse"><stop offset=".288" stop-color="#555248"/><stop offset=".78" stop-color="#1B1A17" stop-opacity="0"/></linearGradient></defs></svg>
